X:1
T:Title
%%score 1 { 2 | 3 }
L:1/8
Q:1/4=120
M:4/4
K:D
V:1 treble nm="MusicXML Part"
V:2 treble nm="MusicXML Part"
V:3 bass 
V:1
"^Beherzter Freyer   TWV 25, No. 76""^Singe-, Spiel und Generalbaßübungen (1733/34)" B | %1
w: Die|
 BFFB (d2 c)e | dcB^A B2 z =A |"^Georg Philipp Telemann (1681-1767)" AFFD A2 d2 | %4
w: lieb' und auch die flöh * sind|oft von ei- ner ahrt; wer|hier den grif ver- gisst, und|
[M:4/4] cBA^G A2 z c | dAA=c B2 z d | (d2 c)d (d2 e)c | ^A^G F2 z2 z F | GE^AF B2 c2 | %9
w: dort die kün- heit spart, den|trifft oft der be- weis: es|hat * sich nichts * ge-|fan * gen; da-|her wir oft ein holz für|
 defB (d2 c2) | B2 z d (d2 c)d | (d2 e)c ^A^G F2 | z2 z F GE^AF | B2 c2 defB | (d2 c2) B3 |] %15
w: ei- nen hecht er- lan *|gen; es hat * sich|nichts * ge- fan * gen;|da- her wir oft ein|holz für ei- nen hecht er-|lan * gen.|
V:2
 z | [FBd]2 [DFB][FBd] [FBd]2 [F^Ac][FAc] | [DFB][CF^A] [DFB][CFA] [DFB]2 [FBd][E=Ae] | %3
 [FAd]2 z [FAd] [EAe]2 [FBd][EBd] |[M:4/4] [EAc][E^GB] [EAe][EGB] [EAc]2 [EAc]2 | %5
 [DAd]2 z [DA=c] [DGB]2 [DGB][DAd] | [EGc]2 [EGc][DAd] [EGB]2 [EGB][EGc] | %7
 [CF^A]2 [CFA]2 [B,FB]2 [^DFB][B,FB] | [B,EG]2 z F GE ^A[FAc] | %9
 [DFB]2 [B,FB][B,EB] [DFB]2 [CF^A]2 | [DFB]2 [B,FB][FBd] [GBd]2 [EGc][DAd] | %11
 [DGB]2 [EGB][EGc] [CF^A]2 z [CFA] | [B,FB]2 [^DFB][B,FB] [B,EG]2 z F | %13
 GE ^A[FAc] [DFB]2 [B,FB][B,EB] | [DFB]2 [CF^A]2 [DFB]3 |] %15
V:3
 z | B,,2"^6" D,B,,"^6\n4" F,F,,"^5"F,,F, | B,F,"^6" D,F, B,,B, B,,"^6"C, | %3
 D,2 z D,"^6" C,A,,"^4\n2"A,,"^6\n5"^G,, |[M:4/4] A,,E,"^6" C,E, A,,A, A,G, | %5
"^6" F,2 z"^7" D, G,G,, G,,"^6"F, |"^6" E,E,, E,,"^6"F,"^6" G,G,, G,,"^6"E, | %7
 F,2 z"^4\n2""^\" E,"^6" ^D,B,, B,,"^6"D, | E,2 z F, G,E, ^A,F, | %9
 B,2"^6" D,"^6"G,"^6\n4" F,E,"^5" F,F,, | B,,C,"^6" D,B,,"^7" E,E,,"^6" E,,"^6"F, | %11
"^5" G,G,,"^6" G,,"^6"E, F,2 z"^4\n2""^\" E, |"^6" ^D,B,, B,,"^6"D, E,2 z F, | %13
 G,E, ^A,F, B,2"^6" D,"^6"G, |"^6\n4" F,2"^5" F,,2 B,,3 |] %15

